X:1
T:Title
%%score ( 1 2 ) ( 3 4 )
L:1/8
Q:1/4=100
M:4/4
K:Eb
V:1 treble nm="Grand Piano, Soprano"
V:2 treble 
V:3 bass nm="Choir Pad, From the Cyber Hymnal™"
V:4 bass 
V:1
 E>[EF] [EG]2 [EG]2 [EG]2 | [B,F][B,E] [DB]2 [DF]2 [EG]2- | [EG][EG] [EA]2 Bc [EB]2 | %3
w: By~William~Howard~Doane * * * *|||
 [EG]2 [EG]4 [DF]2 | E>[DF] [EG]2 [EG]2 [EG]2 | [DF]E [EB]2 [DF]2 [EG]2- | %6
w: |||
 [EG][EG] [EA]2 [Ec]2 [EB]2 | [EG]2 F2- [DF]2 E2 | (3[EG][FA][GB] [Ac]6 | (3[ce][Bd][Ac] [GB]6 | %10
w: ||||
 (3[GB][FA][EG] [DF]>[C=E] [DF]>[_EG] [FA]2 | [DB]2 [EG]6 | (3[EG][FA][GB] [Ac]6 | %13
w: |||
 (3[ce][Bd][Ac] [GB]6 | (3[GB][FA][EG] [DF]>[C=E] [DF]>[FA] [_EG]2 | [DF]2 E6- | E2 z2 z4 |] %17
w: ||||
V:2
 x8 | x8 | z4 E2 z2 | x8 | x8 | x8 | x8 | z2 E2 z4 | x8 | x8 | x8 | x8 | x8 | x8 | x8 | x8 | x8 |] %17
V:3
 [E,G,]>[E,A,] [E,B,]2 [E,B,]2 [E,B,]2 | [E,A,][E,G,] [B,,F,]2 [B,,B,]2 [E,B,]2- | %2
 [E,B,][E,_D] [E,C]2 G,A, [E,G,]2 | [E,B,]2 [B,,B,]4 [B,,B,]2 | %4
 [E,G,]>[E,A,] [E,B,]2 [E,B,]2 [E,B,]2 | [E,A,][E,G,] [B,,F,]2 [B,,B,]2 [E,B,]2- | %6
 [E,B,][_D,B,] [C,A,]2 [A,,A,]2 [B,,G,]2 | [B,,B,]2 B,2 A,2 [E,G,]2 | %8
 (3[E,B,][E,B,][E,E] [A,E]2 (3[A,E][A,E][A,E] [A,E]2 | %9
 (3[A,E][A,E][A,E] [E,E]2 (3[E,E][E,E][E,E] [E,E]2 | %10
 (3[E,E][E,B,][E,B,] [B,,B,]>[B,,B,] [B,,B,]>[B,,B,] [B,,B,]2 | [B,,B,]2 [E,B,]2 [E,B,]2 [E,B,]2 | %12
 (3[E,B,][E,B,][E,E] [A,E]2 (3[A,E][A,E][A,E] [A,E]2 | %13
 (3[A,E][A,E][A,E] [E,E]2 (3[E,E][E,E][E,E] [E,E]2 | %14
 (3[E,E][E,B,][E,B,] [B,,B,]>[B,,B,] [B,,B,]>[B,,B,] [B,,B,]2 | [B,,A,]2 [E,G,]6- | %16
 [E,G,]2 z2 z4 |] %17
V:4
 x8 | x8 | z4 E,2 z2 | x8 | x8 | x8 | x8 | z2 B,,4 z2 | x8 | x8 | x8 | x8 | x8 | x8 | x8 | x8 | %16
 x8 |] %17

